X: 3
T: The Earl's Chair
R: reel
M: 4/4
L: 1/8
K: Dmaj
B3 B BAFA|B2 dB BAFB|A2 FA DAFA|A2dB ADFA|B3 B BAFA|B2 dB BAFB|AFAB defd|1 edef d2FA:|2 edef dABd:|e3 f d2Bd|edef dB Ad|e3 f d2de|fedB ADFA|e3 e e2ed|e2ef defg|a2bf afeg|fedB ADFA:|


Tune 221	Setting 221

